!!!OTL:
!!!ONR: No. 17
!! From Madeleine Beland,
!! "Chansons de Voyageurs, Coureurs de Bois et Forestiers"
!! Quebec: Les Presses de l'universite/ Laval, 1982
!! ISBN 2-7637-6942-X
**kern
*clefG2
*k[f#]
*M2/4
8r
8d
8e
8d
=
4.b
8g
=
8d
8g
8a
8g
*M3/4
=
(4b%
8a)
8a
8a
qa
8b
*M2/4
=
qb
4.a
8e
=
8d#
8e
8b
8b
=
4a;
4r
=
8r
qa
8dd
8dd
8cc
=
4.b
8g
=
8d
8g
8a
8g
=
4b;
4r
=
8r
8b
8cc
8b
*M3/4
=
qb
8dd
8cc
8b
8a
8e
8f#
*M2/4
=
4g
==
*-
